common/src/main/resources/icons/other/expui/mavenBindChecksum.svg

<!--
  - The MIT License (MIT)
  -
  - Copyright (c) 2015-2024 Elior "Mallowigi" Boukhobza
  -
  - Permission is hereby granted, free of charge, to any person obtaining a copy
  - of this software and associated documentation files (the "Software"), to deal
  - in the Software without restriction, including without limitation the rights
  - to use, copy, modify, merge, publish, distribute, sublicense, and/or sell
  - copies of the Software, and to permit persons to whom the Software is
  - furnished to do so, subject to the following conditions:
  -
  - The above copyright notice and this permission notice shall be included in all
  - copies or substantial portions of the Software.
  -
  - THE SOFTWARE IS PROVIDED "AS IS", WITHOUT WARRANTY OF ANY KIND, EXPRESS OR
  - IMPLIED, INCLUDING BUT NOT LIMITED TO THE WARRANTIES OF MERCHANTABILITY,
  - FITNESS FOR A PARTICULAR PURPOSE AND NONINFRINGEMENT. IN NO EVENT SHALL THE
  - AUTHORS OR COPYRIGHT HOLDERS BE LIABLE FOR ANY CLAIM, DAMAGES OR OTHER
  - LIABILITY, WHETHER IN AN ACTION OF CONTRACT, TORT OR OTHERWISE, ARISING FROM,
  - OUT OF OR IN CONNECTION WITH THE SOFTWARE OR THE USE OR OTHER DEALINGS IN THE
  - SOFTWARE.
  -->


<svg data-big="true" xmlns="http://www.w3.org/2000/svg" version="1.1" width="16px" height="16px" fill="#64B5F6"
     viewBox="0 0 24 24">
  <path
    d="M10.59,13.41C11,13.8 11,14.44 10.59,14.83C10.2,15.22 9.56,15.22 9.17,14.83C7.22,12.88 7.22,9.71 9.17,7.76V7.76L12.71,4.22C14.66,2.27 17.83,2.27 19.78,4.22C21.73,6.17 21.73,9.34 19.78,11.29L18.29,12.78C18.3,11.96 18.17,11.14 17.89,10.36L18.36,9.88C19.54,8.71 19.54,6.81 18.36,5.64C17.19,4.46 15.29,4.46 14.12,5.64L10.59,9.17C9.41,10.34 9.41,12.24 10.59,13.41M13.41,9.17C13.8,8.78 14.44,8.78 14.83,9.17C16.78,11.12 16.78,14.29 14.83,16.24V16.24L11.29,19.78C9.34,21.73 6.17,21.73 4.22,19.78C2.27,17.83 2.27,14.66 4.22,12.71L5.71,11.22C5.7,12.04 5.83,12.86 6.11,13.65L5.64,14.12C4.46,15.29 4.46,17.19 5.64,18.36C6.81,19.54 8.71,19.54 9.88,18.36L13.41,14.83C14.59,13.66 14.59,11.76 13.41,10.59C13,10.2 13,9.56 13.41,9.17Z"/>
  <g fill="#D52B2A" fill-rule="evenodd" transform="translate(12 12)">
    <rect width="8" height="6" x="4" y="7"/>
    <path fill-rule="nonzero"
          d="M8,3.5 C7.17157288,3.5 6.5,4.12360338 6.5,4.89285714 L6.5,8.10714286 C6.5,8.87639662 7.17157288,9.5 8,9.5 C8.82842712,9.5 9.5,8.87639662 9.5,8.10714286 L9.5,4.89285714 C9.5,4.12360338 8.82842712,3.5 8,3.5 Z M8,2 C9.65685425,2 11,3.34314575 11,5 L11,8 C11,9.65685425 9.65685425,11 8,11 C6.34314575,11 5,9.65685425 5,8 L5,5 C5,3.34314575 6.34314575,2 8,2 Z"/>
  </g>
</svg>

<svg xmlns="http://www.w3.org/2000/svg" width="16" height="16" fill="#64B5F6" data-big="true" viewBox="0 0 24 24"><path d="M10.59 13.41c.41.39.41 1.03 0 1.42-.39.39-1.03.39-1.42 0a5.003 5.003 0 0 1 0-7.07l3.54-3.54a5.003 5.003 0 0 1 7.07 0 5.003 5.003 0 0 1 0 7.07l-1.49 1.49c.01-.82-.12-1.64-.4-2.42l.47-.48a2.98 2.98 0 0 0 0-4.24 2.98 2.98 0 0 0-4.24 0l-3.53 3.53a2.98 2.98 0 0 0 0 4.24m2.82-4.24c.39-.39 1.03-.39 1.42 0a5.003 5.003 0 0 1 0 7.07l-3.54 3.54a5.003 5.003 0 0 1-7.07 0 5.003 5.003 0 0 1 0-7.07l1.49-1.49c-.01.82.12 1.64.4 2.43l-.47.47a2.98 2.98 0 0 0 0 4.24 2.98 2.98 0 0 0 4.24 0l3.53-3.53a2.98 2.98 0 0 0 0-4.24.973.973 0 0 1 0-1.42"/><g fill="#D52B2A" fill-rule="evenodd"><path d="M16 19h8v6h-8z"/><path fill-rule="nonzero" d="M20 15.5c-.828 0-1.5.624-1.5 1.393v3.214c0 .77.672 1.393 1.5 1.393s1.5-.624 1.5-1.393v-3.214c0-.77-.672-1.393-1.5-1.393m0-1.5a3 3 0 0 1 3 3v3a3 3 0 1 1-6 0v-3a3 3 0 0 1 3-3"/></g></svg>
